X:130
M:2/4
L:1/8
K:A
E|ABcA|B2 EB|c2 Ac|B2 EB|c2 Ac|defd|cAEG|A2 A,:|
|:A|cdef|e2 ae|"tr"f2 df|e2 ae|"tr"f2 af|e2 ca|fedc|"tr"B2 E2|

